icons/4_Outdated/CoinDCX v1.svg

<svg width="1024" height="1024" fill="none" xmlns="http://www.w3.org/2000/svg"><g clip-path="url(#a)"><path d="M512 1024c282.77 0 512-229.23 512-512S794.77 0 512 0 0 229.23 0 512s229.23 512 512 512Z" fill="#FF837D"/><path d="M516.79 556.119v32.36a28.212 28.212 0 0 1-14 24.45l-27.5 15.94a24.737 24.737 0 0 0 9.39-9.7 26.66 26.66 0 0 1-6.6 7.73c13.25-10.35 15.3-35.63-1-45.07l-43.78-25.33a525.805 525.805 0 0 1 38.53 36c10.22 11.72 3.45 36.29 3.45 36.29a21.786 21.786 0 0 0 2.51-1.67 22.525 22.525 0 0 1-2.25 1.54l-89.36 51.78a10.467 10.467 0 0 1-13.688-3.352 10.47 10.47 0 0 1-1.732-4.798 123.342 123.342 0 0 1 7.12-52.47 120.105 120.105 0 0 1 55.37-63.27l-65.9-38.15a237.784 237.784 0 0 1-83.395-83.524A237.778 237.778 0 0 1 251 321.539l245.74 141.79a45.906 45.906 0 0 1 20.5 38.07s-.48 54.15-.45 54.72ZM799 702.459l-245.73-141.79a45.9 45.9 0 0 1-20.5-38.07s.48-54.14.44-54.72v-32.35a28.207 28.207 0 0 1 14-24.44l27.5-15.95a24.743 24.743 0 0 0-9.39 9.71 25.592 25.592 0 0 1 9.18-9.49l89.36-51.78a10.519 10.519 0 0 1 15.42 8.15 123.438 123.438 0 0 1-7.12 52.47 120.109 120.109 0 0 1-55.37 63.27l65.86 38.13A237.745 237.745 0 0 1 799 702.459Zm-182.22-234.9a526.444 526.444 0 0 1-38.53-36c-10.22-11.72-3.45-36.29-3.45-36.29-15.73 8.73-19.23 36.85-1.79 47l43.77 25.29Z" fill="#fff"/></g><defs><clipPath id="a"><path fill="#fff" d="M0 0h1024v1024H0z"/></clipPath></defs></svg>

<svg width="1024" height="1024" viewBox="0 0 1024 1024" fill="none" xmlns="http://www.w3.org/2000/svg">
<g clip-path="url(#clip0_3_515)">
<path d="M512 1024C794.77 1024 1024 794.77 1024 512C1024 229.23 794.77 0 512 0C229.23 0 0 229.23 0 512C0 794.77 229.23 1024 512 1024Z" fill="#FF837D"/>
<path d="M516.79 556.119V588.479C516.804 593.424 515.518 598.286 513.061 602.577C510.604 606.868 507.062 610.438 502.79 612.929L475.29 628.869C479.259 626.569 482.51 623.21 484.68 619.169C482.996 622.145 480.755 624.77 478.08 626.899C491.33 616.549 493.38 591.269 477.08 581.829L433.3 556.499C446.737 567.847 459.597 579.862 471.83 592.499C482.05 604.219 475.28 628.789 475.28 628.789C476.154 628.291 476.993 627.733 477.79 627.119C477.072 627.677 476.32 628.192 475.54 628.659L386.18 680.439C384.663 681.264 382.966 681.701 381.24 681.711C379.514 681.722 377.811 681.305 376.285 680.498C374.759 679.691 373.456 678.52 372.492 677.087C371.528 675.655 370.933 674.007 370.76 672.289C369.307 654.49 371.736 636.587 377.88 619.819C388.111 592.747 407.773 570.279 433.25 556.549L367.35 518.399C332.974 498.009 304.292 469.283 283.955 434.875C263.619 400.466 252.285 361.487 251 321.539L496.74 463.329C503.021 467.503 508.177 473.16 511.752 479.8C515.328 486.439 517.213 493.858 517.24 501.399C517.24 501.399 516.76 555.549 516.79 556.119ZM799 702.459L553.27 560.669C546.988 556.496 541.832 550.839 538.256 544.199C534.681 537.559 532.797 530.14 532.77 522.599C532.77 522.599 533.25 468.459 533.21 467.879V435.529C533.197 430.586 534.483 425.726 536.94 421.436C539.397 417.147 542.939 413.578 547.21 411.089L574.71 395.139C570.74 397.442 567.489 400.804 565.32 404.849C567.497 400.937 570.663 397.665 574.5 395.359L663.86 343.579C665.379 342.767 667.073 342.34 668.795 342.336C670.517 342.332 672.214 342.751 673.736 343.555C675.259 344.36 676.56 345.526 677.527 346.951C678.494 348.376 679.096 350.017 679.28 351.729C680.73 369.528 678.301 387.43 672.16 404.199C661.929 431.271 642.266 453.739 616.79 467.469L682.65 505.599C717.028 525.987 745.711 554.714 766.047 589.122C786.383 623.531 797.717 662.511 799 702.459ZM616.78 467.559C603.343 456.21 590.484 444.195 578.25 431.559C568.03 419.839 574.8 395.269 574.8 395.269C559.07 403.999 555.57 432.119 573.01 442.269L616.78 467.559Z" fill="white"/>
</g>
<defs>
<clipPath id="clip0_3_515">
<rect width="1024" height="1024" fill="white"/>
</clipPath>
</defs>
</svg>
